X: 20241
T: WHILST HAPPY IN MY NATIVE LAND
Q: "With boldness and spirit."
%R: air, march
B: W. Hamilton "Universal Tune-Book" Vol. 2 Glasgow 1846 p.24 #1
S: http://s3-eu-west-1.amazonaws.com/itma.dl.printmaterial/book_pdfs/hamiltonvol2web.pdf
Z: 2016 John Chambers <jc:trillian.mit.edu>
M: C|
L: 1/8
K: F
% - - - - - - - - - - - - - - - - - - - - - - - - -
c |\
c>BA>B c2c2 | c4 z2f2 |\
d3d c2B2 | B2A2 z2A2 |\
G>GA>=B c2d2 | e4 z2f2 |\
g2c2 (ce)(d=B) | (c3d) c2zc |\
(G>A)(B>A) G2d2 | c2B2 A2B2 |\
c2d2 c2(fA) | A2G2 z2C2 |
F3G A2c2 | B3A G2C2 |\
G3A B2(dB) | B2A2 z2c2 |\
f2f2 f2c2 | f2[f2c2] [f2A2][A2F2] |\
B3c d2e2 | f3g a2f2 |\
d2B2 G2e2 | f3g f2A2 |\
B3c d2e2 | f3g a2f2 |\
d2B2G2e2 | f3g f2z |]
% - - - - - - - - - - - - - - - - - - - - - - - - -

%%sep 1 1 500
%%sep 1 1 500

